markup/images/icon38.svg

<svg xmlns="http://www.w3.org/2000/svg" width="36" height="36"><path fill-rule="evenodd" fill="#FFF" d="M28.121 36h-2.243a7.41 7.41 0 0 1-1.672-.195A1.765 1.765 0 0 1 23.4 36H1.8A1.8 1.8 0 0 1 0 34.2V5.4a1.8 1.8 0 0 1 1.8-1.8h2.51A1.803 1.803 0 0 1 6 2.4h3.214a3.589 3.589 0 0 1 6.772 0H19.2c.76.004 1.436.484 1.69 1.2h2.51a1.8 1.8 0 0 1 1.8 1.8v10.125a5.017 5.017 0 0 1 1.543 2.339 7.907 7.907 0 0 1 3.554-3.982.6.6 0 0 1 .61 1.033c-2.593 1.531-3.276 3.535-3.407 4.915.258-.216.554-.383.872-.493l.059-.017c.262-.079.533-.119.806-.12h1.317c3.003 0 5.446 2.604 5.446 5.802V27.6c0 4.632-3.535 8.4-7.879 8.4zM4.2 4.8H1.8a.6.6 0 0 0-.6.6v28.8a.6.6 0 0 0 .6.6h20.04a8.042 8.042 0 0 1-1.465-1.2H3.6a1.2 1.2 0 0 1-1.2-1.2V7.2A1.2 1.2 0 0 1 3.6 6h.6V4.8zm15.6-.6a.6.6 0 0 0-.6-.6h-3.66a.465.465 0 0 1-.287-.081.575.575 0 0 1-.116-.078.579.579 0 0 1-.057-.064.603.603 0 0 1-.073-.108.903.903 0 0 1-.034-.086c-.009-.021-.018-.042-.025-.064a2.4 2.4 0 0 0-4.703 0 .388.388 0 0 1-.023.056.578.578 0 0 1-.502.413.637.637 0 0 1-.06.012H6a.6.6 0 0 0-.6.6v2.4a.6.6 0 0 0 .6.6h13.2a.6.6 0 0 0 .6-.6V4.2zm-.6 4.2H6a1.8 1.8 0 0 1-1.69-1.2H3.6v25.2h15.822A8.725 8.725 0 0 1 18 27.6v-2.598a5.831 5.831 0 0 1 3.217-5.286c-1.429-1.154-1.536-3.339-1.325-4.574.056-.246.158-.678 1.708-.733V7.2h-.71a1.8 1.8 0 0 1-1.69 1.2zm4.8-3a.6.6 0 0 0-.6-.6H21V6h.6a1.2 1.2 0 0 1 1.2 1.2v7.261a4.81 4.81 0 0 1 1.2.328V5.4zm1.518 12.594v.003a3.539 3.539 0 0 0-3.318-2.395h-.013c-.385-.002-.77.02-1.153.064-.075.829-.102 3.146 1.883 3.544.016.003.027.012.042.016a5.24 5.24 0 0 1 .487-.026h1.313c.314 0 .625.054.92.16.061.02.114.054.174.08a8.068 8.068 0 0 0-.335-1.446zm9.282 7.008c0-2.536-1.905-4.602-4.247-4.603h-1.325a1.634 1.634 0 0 0-.48.078l-.028.009a1.796 1.796 0 0 0-1.12 1.718v.596a.6.6 0 0 1-1.2 0v-.595a1.796 1.796 0 0 0-1.127-1.715 1.547 1.547 0 0 0-.504-.09h-1.323c-2.341 0-4.246 2.066-4.246 4.602V27.6c0 3.971 2.996 7.2 6.678 7.2h2.243c3.682 0 6.679-3.231 6.679-7.2v-2.598zm-11.805-2.235c-.068.025-1.395.529-1.395 2.433a.6.6 0 0 1-1.2 0c0-2.8 2.12-3.54 2.21-3.569a.6.6 0 1 1 .385 1.136zM15.6 13.2H7.2a.6.6 0 1 1 0-1.2h8.4a.6.6 0 0 1 0 1.2zm-8.4 4.2h6.6a.6.6 0 0 1 0 1.2H7.2a.6.6 0 0 1 0-1.2zm0 5.4h5.4a.6.6 0 1 1 0 1.2H7.2a.6.6 0 0 1 0-1.2zm0 5.4h5.4a.6.6 0 1 1 0 1.2H7.2a.6.6 0 0 1 0-1.2z"/></svg>

<svg 
 xmlns="http://www.w3.org/2000/svg"
 xmlns:xlink="http://www.w3.org/1999/xlink"
 width="36px" height="36px">
<path fill-rule="evenodd"  fill="rgb(255, 255, 255)"
 d="M28.121,36.000 L25.878,36.000 C25.315,35.999 24.754,35.933 24.206,35.805 C23.957,35.933 23.680,36.000 23.400,36.000 L1.800,36.000 C0.806,36.000 -0.000,35.194 -0.000,34.200 L-0.000,5.400 C-0.000,4.406 0.806,3.600 1.800,3.600 L4.310,3.600 C4.564,2.884 5.240,2.404 6.000,2.400 L9.214,2.400 C9.718,0.963 11.076,-0.000 12.600,-0.000 C14.124,-0.000 15.481,0.963 15.986,2.400 L19.200,2.400 C19.960,2.404 20.636,2.884 20.890,3.600 L23.400,3.600 C24.394,3.600 25.200,4.406 25.200,5.400 L25.200,15.525 C25.844,16.072 26.339,16.774 26.640,17.565 C26.677,17.659 26.711,17.761 26.743,17.864 C27.430,16.165 28.687,14.757 30.297,13.882 C30.582,13.723 30.941,13.821 31.106,14.101 C31.272,14.382 31.183,14.743 30.907,14.915 C28.314,16.446 27.631,18.450 27.500,19.830 C27.758,19.614 28.054,19.447 28.372,19.337 C28.391,19.331 28.411,19.325 28.431,19.320 C28.693,19.241 28.964,19.201 29.237,19.200 C29.241,19.200 29.246,19.200 29.250,19.200 L30.554,19.200 C33.557,19.200 36.000,21.804 36.000,25.002 L36.000,27.600 C36.000,32.232 32.465,36.000 28.121,36.000 ZM4.200,4.800 L1.800,4.800 C1.469,4.800 1.200,5.069 1.200,5.400 L1.200,34.200 C1.200,34.531 1.469,34.800 1.800,34.800 L21.840,34.800 C21.306,34.459 20.814,34.056 20.375,33.600 L3.600,33.600 C2.937,33.600 2.400,33.063 2.400,32.400 L2.400,7.200 C2.400,6.538 2.937,6.000 3.600,6.000 L4.200,6.000 L4.200,4.800 ZM19.800,4.200 C19.800,3.869 19.531,3.600 19.200,3.600 L15.540,3.600 C15.438,3.605 15.337,3.577 15.253,3.519 C15.211,3.498 15.172,3.471 15.137,3.441 C15.116,3.421 15.098,3.400 15.080,3.377 C15.052,3.344 15.027,3.307 15.007,3.269 C14.994,3.241 14.983,3.212 14.973,3.183 C14.964,3.162 14.955,3.141 14.948,3.119 C14.720,2.002 13.737,1.200 12.597,1.200 C11.457,1.200 10.474,2.002 10.245,3.119 C10.239,3.138 10.231,3.157 10.222,3.175 C10.210,3.213 10.195,3.250 10.175,3.285 C10.122,3.384 10.040,3.466 9.940,3.520 C9.905,3.539 9.868,3.554 9.830,3.565 C9.794,3.576 9.757,3.584 9.720,3.588 C9.700,3.593 9.680,3.597 9.660,3.600 L6.000,3.600 C5.669,3.600 5.400,3.869 5.400,4.200 L5.400,6.600 C5.400,6.932 5.669,7.200 6.000,7.200 L19.200,7.200 C19.531,7.200 19.800,6.932 19.800,6.600 L19.800,4.200 ZM19.200,8.400 L6.000,8.400 C5.240,8.397 4.564,7.917 4.310,7.200 L3.600,7.200 L3.600,32.400 L19.422,32.400 C18.489,30.973 17.995,29.304 18.000,27.600 L18.000,25.002 C17.972,22.769 19.221,20.717 21.217,19.716 C19.788,18.562 19.681,16.377 19.892,15.142 C19.948,14.896 20.050,14.464 21.600,14.409 L21.600,7.200 L20.890,7.200 C20.636,7.917 19.960,8.397 19.200,8.400 ZM24.000,5.400 C24.000,5.069 23.731,4.800 23.400,4.800 L21.000,4.800 L21.000,6.000 L21.600,6.000 C22.263,6.000 22.800,6.538 22.800,7.200 L22.800,14.461 C23.212,14.518 23.616,14.628 24.000,14.789 L24.000,5.400 ZM25.518,17.994 L25.518,17.997 C25.032,16.575 23.702,15.615 22.200,15.602 L22.187,15.602 C21.802,15.600 21.417,15.622 21.034,15.666 C20.959,16.495 20.932,18.812 22.917,19.210 C22.933,19.213 22.944,19.222 22.959,19.226 C23.120,19.211 23.282,19.200 23.446,19.200 L24.746,19.200 C24.751,19.200 24.754,19.200 24.759,19.200 C25.073,19.200 25.384,19.254 25.679,19.360 C25.740,19.380 25.793,19.414 25.853,19.440 C25.786,18.949 25.674,18.465 25.518,17.994 ZM34.800,25.002 C34.800,22.466 32.895,20.400 30.553,20.399 L29.228,20.399 C29.065,20.401 28.904,20.427 28.748,20.477 L28.720,20.486 C28.024,20.768 27.578,21.453 27.600,22.204 L27.600,22.800 C27.600,23.131 27.331,23.400 27.000,23.400 C26.668,23.400 26.400,23.131 26.400,22.800 L26.400,22.205 C26.420,21.454 25.970,20.769 25.273,20.490 C25.111,20.432 24.941,20.402 24.769,20.400 L23.446,20.400 C21.105,20.400 19.200,22.466 19.200,25.002 L19.200,27.600 C19.200,31.571 22.196,34.800 25.878,34.800 L28.121,34.800 C31.803,34.800 34.800,31.569 34.800,27.600 L34.800,25.002 ZM22.995,22.767 C22.927,22.792 21.600,23.296 21.600,25.200 C21.600,25.531 21.331,25.800 21.000,25.800 C20.669,25.800 20.400,25.531 20.400,25.200 C20.400,22.400 22.520,21.660 22.610,21.631 C22.924,21.524 23.265,21.693 23.371,22.007 C23.477,22.321 23.309,22.661 22.995,22.767 ZM15.600,13.200 L7.200,13.200 C6.869,13.200 6.600,12.932 6.600,12.600 C6.600,12.269 6.869,12.000 7.200,12.000 L15.600,12.000 C15.931,12.000 16.200,12.269 16.200,12.600 C16.200,12.932 15.931,13.200 15.600,13.200 ZM7.200,17.400 L13.800,17.400 C14.131,17.400 14.400,17.669 14.400,18.000 C14.400,18.331 14.131,18.600 13.800,18.600 L7.200,18.600 C6.869,18.600 6.600,18.331 6.600,18.000 C6.600,17.669 6.869,17.400 7.200,17.400 ZM7.200,22.800 L12.600,22.800 C12.931,22.800 13.200,23.068 13.200,23.400 C13.200,23.731 12.931,24.000 12.600,24.000 L7.200,24.000 C6.869,24.000 6.600,23.731 6.600,23.400 C6.600,23.068 6.869,22.800 7.200,22.800 ZM7.200,28.200 L12.600,28.200 C12.931,28.200 13.200,28.468 13.200,28.800 C13.200,29.131 12.931,29.400 12.600,29.400 L7.200,29.400 C6.869,29.400 6.600,29.131 6.600,28.800 C6.600,28.468 6.869,28.200 7.200,28.200 Z"/>
</svg>
